X: 1
T: Oot be Est da Vong
T: Trad Shetland
B: Anderson 41 after Henry Thomson of Vidlin, Bain 16
M: C|
L: 1/8
K: D
|: (dB) \
| "D"AFAB ABd2 | (fd)fd "G"e(dBd) \
| "D"AFAB ABde | "A7"(fa)ef "D"d2 :|
ef \
| "A7"{f}g2ge "D"f2fd | "Em"edef e(dBd) \
| "A7"g2ge "D"f2fd | "Em"edef "A7"a2a2 |
| "A7"g2ge "D"f2fd | "Em"edef e(dBd) \
| "D"AFAB ABde | "A7"(fa)ef "D"d2 |]
